X: 334
T: Ookpik Waltz
B: canberra pickers and fiddlers
B: good tune book
B: tunes
L:1/8
Q: 1/4=100
K:G
V:1 
                                               (3DEF |\
"G"G3 F GB |"D"A2 F2 ED |"Em"E2 G3  A |    G2 B2 d2  |\
"C"e3 d ef |   e2 d2 BA | "G"B2 d3  e |    d4    gf  |
"C"e3 d ef |   e2 d2 BA | "G"B2 d2 BA |"Em"G2 E2 B,2 |\
"C"C3 E GB |"D"A2 F2 ED |"Em"E2 G3  A |    G4       :|
|:                                           Bd |\
"Em"e2 B3  c |B3  A GB | "G"d2 B3   c |B2 A2 G2 |\
"Am"A3  G AB |A2 G2 ED |"Em"E2 ED B,D |E4      :|
% abcbook-tune_id 63da59341f322ede36b31da3
% abcbook-tune_composer_id 
% abcbook-link-0 https://www.youtube.com/watch?v=szt4zhnenIk
% abcbook-boost 0
% abcbook-difficulty 0
% abcbook-tags canberra pickers and fiddlers,good tune book,old time tunes,© free
% abcbook-tablature 
% abcbook-transpose 
% abcbook-tuning GDAD
% abcbook-lastupdated 1675470597694
% abcbook-src-url https://tunebook.net/scrape/tunes.abc
% abcbook-soundfonts 
% abcbook-repeats 1
% %%vskip .3cm
%%gchordfont "itim-music,Itim" 20

